UI/Devices-Sensors/SVG/whiteboard_outline_24px.svg

<svg width="24" height="24" viewBox="0 0 24 24" fill="none" xmlns="http://www.w3.org/2000/svg">
<path d="M20 4V13H4V4H20ZM22 2H2V15H22V2ZM22 17H2V19H9.25L7 22H9L11.25 19H12.75L15 22H17L14.75 19H22V17ZM13 8H16V6H13C11.6739 6 10.4021 6.52678 9.46447 7.46447C8.52678 8.40215 8 9.67392 8 11H10C10 10.2044 10.3161 9.44129 10.8787 8.87868C11.4413 8.31607 12.2044 8 13 8Z" fill="#0F1621"/>
</svg>

<svg xmlns="http://www.w3.org/2000/svg" width="24" height="24" viewBox="0 0 24 24"><rect width="24" height="24" style="fill:none"/><path d="M20,4v9H4V4H20m2-2H2V15H22V2Zm0,15H2v2H9.25L7,22H9l2.25-3h1.5L15,22h2l-2.25-3H22ZM13,8h3V6H13a5,5,0,0,0-5,5h2A3,3,0,0,1,13,8Z"/></svg>
